X:8159
T:Pues que ya nunca nos veis
C:Juan del Encina
Z:Transcribed by Frank Nordberg - http://www.musicaviva.com
F:http://abc.musicaviva.com/tunes/encina-juan-del/encina-pues-que-4m.abc
V:1 Program 1 40 %Violin
V:2 Program 1 110 %Fiddle
V:3 Program 1 41 %Viola
V:4 Program 1 42 bass %Cello
M:3/4
L:1/4
K:Gm
V:1
g2g|a2a|bc'2|d'3|d'2c'|bc'2|ba2|"_Fine"g3|g2g|a2a|bc'2|b2a|g2g|a2a|bd'2|b2"_D.C."a||
V:2
g2g|f2f|ga2|b3|b2a|ga2|g_g2|g3|g2g|f2f|ga2|g2_g|g2g|f2f|ga2|g2_g||
V:3
d2d|d2d|df2|f3|f2f|df2|d2d|d3|d2d|d2d|df2|d2d|d2d|d2d|df2|d2d||
V:4
G2G|D2D|GF2|B3|B2F|GF2|GD2|G3|G2G|D2D|GF2|G2D|G2G|D2D|GF2|G2D||
W:
W:
W:  From Musica Viva - http://www.musicaviva.com
W:  the Internet center for free sheet music downloads.
